X:1220
T:Bath Hornpipe. FK.20
M:C
L:1/8
Q:160
C:"MS 42"
S:Kidson's H'pipe MS,early 20thC.
R:Hornpipe
O:England
A:Leeds
N:
Z:vmp.John Bagnall
K:G
dc | B2 G2 G2 dc | BGBd gdBG | c2 A2 A2 ag | f2 d2 d2 dc |!
 B2 G2 G2 d2 | BGBd g2 e2 | ABcA dcBA | B2 G2 G2||!
"Qu"d2 | g2 dB g2 dB | gfga g2 d2 | g2 dB g2 fg | a2 A2 A2 d2 |!
 g2 dB g2dB | gfga g2 d2 | ABcA dcBA | B2 G2 G2 ||
% Second sharp in key signature crossed out


